X: 20
T: Kentucky Waltz
C: Bill Monroe (1946)
%D:1946
O: arranged by Bob Alessio
N: and a few details fixed by John Chambers
N: Bill Monroe's most successful tune, peaded at #3 on the C&W charts
M: 3/4
L: 1/8
K: D
(3DFA |\
"D"d3 c B2 | A4 DE | F(G F4) | "D"z2 z2 (3ABc |\
"D"d4 cB | A4 F2 | "A"E6 | z2 z2 A2 |
"A"c4 cB | A4 GF | E4- (EF) | E4 CB, |\
"A"(A,2 C2 E2) | A2 c2 (3BcB | "D"A6 | z2 z2 (3ABc |
"D"d3 c B2 | A4 DE | FG F4 | z2 z2 d2 |\
"D"f4 f2 | "D7"e4 d2 | "G"B6- | B2 z2 Bc "^I"|
"G"d3 d cd | "E7/G#"e4 de | "D"f2 fe dB | "B7"A4 ^GA |\
"E7"B3 ^A B=c | "A7"^c2 f2 fe | "D"d6- | d2 z2 |]


